!!!!SEGMENT: pl-wtm--a-36-290-86_rozycki-ludomir--tance-polskie-op-37-ii.krn
!!!cenid: 19xx:141
!!!COM: Różycki, Ludomir
!!!COM-rismID: pe50045573
!!!CDT: 1883-1953
!!!CNT: Polish
!!!OTL: Tańce Polskie op. 37/II.
!!!PDT: 1915
!!!AGN:
!!!YEC: Copyright 2022 Narodowy Instytut Fryderyka Chopina (https://polishscores.org)
!!!YEM: License CC-BY-4.0 (https://creativecommons.org/licenses/by/4.0)
!!!SMS-siglum: PL-Wtm
!!!SMS-shelfmark: A.36.290/86
!!!SMS-variant:
!!!SMS-altvar:
!!!SMS-shelfwork: W
!!!NIFC-rismSourceID: 1001182913
!!!NIFC-rismChildID: 1001182913
!!!NIFC-islandoraID: pl-wtm:65978
!!!URL-pdf-islandora: https://repozytorium.nifc.pl/islandora/object/pl-wtm%3A65978/datastream/PDF/view
!!!URL-scan: https://polish.musicsources.pl/pl/lokalizacje/galeria/druki-muzyczne/21457/3 @EN{Scan on Polish Music Sources Website} @PL{Skany w portalu Dziedzictwo Muzyki Polskiej w otwartym dostępie}
!!!IIIF:
!!!ONB-nifc:
!!!AIN: 1 piano
!!!key: none
**kern	**fing	**kern	**fing	**dynam
*part1	*	*part1	*	*part1
*staff2	*	*staff1	*	*staff1/2
*group1	*	*group1	*	*
*ICklav	*	*ICklav	*	*
*Ipiano	*	*Ipiano	*	*
*I"[Pianoforte]	*	*I"[Pianoforte]	*	*
*clefF4	*	*clefG2	*	*
*k[]	*	*k[]	*	*
*a:	*	*a:	*	*
*M3/8	*	*M3/8	*	*
=1	=1	=1	=1	=1
*ped	*	*	*	*
!!LO:TX:a:B:t=Presto. M.M. [quarter-dot] = 100.
8BL 8F 8AA\	.	4.r	.	mf
!	!	!LO:TX:b:i:t=deciso	!	!
.	.	.	.	.
8B 8F 8AA\	.	.	.	.
8BJ 8F 8AA^\	.	.	.	sffz
=2	=2	=2	=2	=2
8BL 8F 8AA\	.	4.r	.	mf
8B 8F 8AA\	.	.	.	.
8BJ 8F 8AA^\	.	.	.	sffz
=3	=3	=3	=3	=3
8BL 8F 8AA\	.	4.r	.	mf
8B 8F 8AA\	.	.	.	.
8BJ 8F 8AA^\	.	.	.	sffz
*Xped	*	*	*	*
=4	=4	=4	=4	=4
*ped	*	*	*	*
8AAL 8AAA/	.	4.e/	.	sfz
8c 8E/	.	.	.	ff
8cJ 8E/	.	.	.	.
*Xped	*	*	*	*
=5	=5	=5	=5	=5
*ped	*	*	*	*
8BL 8F 8AA\	.	4.r	.	mf
8B 8F 8AA\	.	.	.	.
8BJ 8F 8AA^\	.	.	.	sfz
=6	=6	=6	=6	=6
8BL 8F 8AA\	.	4.r	.	mf
8B 8F 8AA\	.	.	.	.
8BJ 8F 8AA^\	.	.	.	sfz
=7	=7	=7	=7	=7
8BL 8F 8AA\	.	4.r	.	mf
8B 8F 8AA\	.	.	.	.
8BJ 8F 8AA^\	.	.	.	sfz
*Xped	*	*	*	*
!!LO:LB:g=original
=8	=8	=8	=8	=8
*ped	*	*	*	*
8AAL 8AAA/	.	4.e/	.	sfz
8c 8E/	.	.	.	.
8cJ 8E/	.	.	.	.
*Xped	*	*	*	*
=9	=9	=9	=9	=9
*	*	*^	*	*
!	!	!	!	!	!LO:DY:rj
8BL 8F 8AA\	.	(>16f/LL	4ryy	2	pp
.	.	.	.	.	<
.	.	16g/J	.	3	.
8B 8F 8AA\	.	8a/	.	4	.
8BJ 8F 8AA\	.	16b/L	[8d#X\	5	.
.	.	16a/JJ)	.	4	.
=10	=10	=10	=10	=10	=10
*	*	*	*	*	*^
8BL 8F 8AA\	.	(>16f/LL	8d#\]	2	.	.
.	.	16g/J	.	3	.	.
!	!	!LO:TX:b:i:t=poco-a-poco-cresc.:ext=s:problem:text with extention lines	!	!	!	!
8B 8F 8AA\	.	8a/	8rc	4	<	.
8BJ 8F 8AA\	.	16b/L	[8d#X\	5	.	.
.	.	16a/JJ)	.	4	.	.
=11	=11	=11	=11	=11	=11	=11
8BL 8F 8AA\	.	(16f/LL	8d#\]	.	.	.
.	.	16g/J	.	.	.	.
8B 8F 8AA\	.	8a/	8rc	.	.	.
8BJ 8F 8AA\	.	16cc#X/L	[8d#X\	.	.	sfz
.	.	16b/JJ	.	.	.	.
=12	=12	=12	=12	=12	=12	=12
8BL 8F 8AA\	.	32a/LLL	4.d#\]	.	.	.
.	.	32b/	.	.	.	.
.	.	32a/	.	.	.	.
.	.	32b/JJ	.	.	.	.
8B 8F 8AA\	.	8g/	.	.	.	.
8BJ 8F 8AA\	.	8a/J)	.	.	.	.
=13	=13	=13	=13	=13	=13	=13
8BL 8F 8AA\	.	(16f/LL	4r	.	.	.
.	.	16g/J	.	.	.	.
8B 8F 8AA\	.	8a/	.	.	.	.
8BJ 8F 8AA\	.	16b/L	[8d#X\	.	[	.
.	.	16a/JJ)	.	.	.	.
*	*	*	*	*	*v	*v
!!LO:LB:g=original
=14	=14	=14	=14	=14	=14
8BL 8F 8AA\	.	(16f/LL	8d#\]	.	[
.	.	16g/J	.	.	.
8B 8F 8AA\	.	8a/	8rc	.	.
8BJ 8F 8AA\	.	16b/L	[8d#X\	.	.
.	.	16a/JJ)	.	.	.
=15	=15	=15	=15	=15	=15
8BL 8F 8AA\	.	(16f/LL	8d#\]	.	.
.	.	16g/J	.	.	.
8B 8F 8AA\	.	8a/	8rc	.	.
8BJ 8F 8AA\	.	16b/L	8d#X\	.	.
.	.	16a/JJ)	.	.	.
*	*	*v	*v	*	*
=16	=16	=16	=16	=16
8AAL 8AAA/	.	4.e/	.	sffz
8c 8E/	.	.	.	.
8cJ 8E/	.	.	.	.
=17	=17	=17	=17	=17
*	*	*^	*	*
8BL 8F 8AA\	.	(16f/LL	4r	.	pp
.	.	16g/J	.	.	.
8B 8F 8AA\	.	8a/	.	.	.
8BJ 8F 8AA\	.	16b/L	[8d#X^\	.	.
.	.	16a/JJ)	.	.	.
=18	=18	=18	=18	=18	=18
8BL 8F 8AA\	.	(16f/LL	4d#\]	.	.
.	.	16g/J	.	.	.
8B 8F 8AA\	.	8a/	.	.	.
8BJ 8F 8AA\	.	16b/L	[8d#X^\	.	.
.	.	16a/JJ)	.	.	.
=19	=19	=19	=19	=19	=19
8BL 8F 8AA\	.	(16f/LL	4d#\]	.	.
.	.	16g/J	.	.	.
8B 8F 8AA\	.	8a/	.	.	.
8BJ 8F 8AA\	.	16cc#X/L	[8d#X^\	.	.
.	.	16b/JJ)	.	.	.
!!LO:LB:g=original
=20	=20	=20	=20	=20	=20
8BL 8F 8AA\	.	(32a/LLL	4.d#\]	.	.
.	.	32b/	.	.	.
.	.	32a/	.	.	.
.	.	32b/JJ	.	.	.
8B 8F 8AA\	.	8g/	.	.	.
8BJ 8F 8AA\	.	16g/L	.	.	.
.	.	16a/JJ)	.	.	.
=21	=21	=21	=21	=21	=21
8BL 8F 8AA\	.	(16f/LL	4r	.	.
.	.	16g/J	.	.	.
8B 8F 8AA\	.	8a/	.	.	.
8BJ 8F 8AA\	.	16b/L	[8d#X\	.	.
.	.	16a/JJ)	.	.	.
=22	=22	=22	=22	=22	=22
8BL 8F 8AA\	.	(16f/LL	8d#\]	.	.
.	.	16g/J	.	.	.
8B 8F 8AA\	.	8a/	8rc	.	.
8BJ 8F 8AA\	.	16b/L	[8d#X\	.	.
.	.	16a/JJ)	.	.	.
=23	=23	=23	=23	=23	=23
8BL 8F 8AA\	.	(16f/LL	8d#\]	.	.
.	.	16g/J	.	.	.
8B 8F 8AA\	.	8a/	8rc	.	.
8BJ 8F 8AA\	.	16b/L	8d#X\	.	.
.	.	16a/JJ)	.	.	.
*	*	*v	*v	*	*
=24	=24	=24	=24	=24
8AAL 8AAA/	.	4.e/	.	.
8c 8E/	.	.	.	.
8cJ 8E/	.	.	.	.
=25	=25	=25	=25	=25
*^	*	*^	*	*
*ped	*	*	*	*	*	*
4.AA~~/	8AA\L	.	(16d#X/LL	8d#\	2	ff
.	.	.	16e/	.	1	.
.	8c 8E\	.	16a/	4ryy	2	.
.	.	.	16cc/	.	3	.
*Xped	*	*	*	*	*	*
.	8cJ 8E\	.	16ee/	.	5	.
.	.	.	16dd#X/JJ)	.	4	.
*	*	*	*v	*v	*	*
!!LO:PB:g=original
=26	=26	=26	=26	=26	=26
!LO:TX:b:i:t=[Ped] sempre	!	!	!LO:TX:t=P:problem:kreska między górnymi i dolnymi oznaczeniami palcowania	!	!
4.AA~~/	8AA\L	.	(32b\LLL	1 2	<
.	.	.	32cc\	2 3	.
.	.	.	32b\	.	.
.	.	.	32cc\JJ)	.	.
.	8c 8E\	.	(8b^\	.	.
.	8cJ 8E\	.	8cc^\J)	.	[[
=27	=27	=27	=27	=27	=27
*	*	*	*^	*	*
4.AA/	8AA\L	.	(16d#X/LL	8d#\	2	.
.	.	.	16e/	.	1	.
.	8c 8E\	.	16a/	4ryy	2	.
.	.	.	16cc/	.	3	.
.	8cJ 8E\	.	16ee/	.	5	.
.	.	.	16dd#X/JJ)	.	4	.
*	*	*	*v	*v	*	*
=28	=28	=28	=28	=28	=28
4.AA/	8AA\L	.	(32b-X\LLL	.	>
.	.	.	32cc\	.	.
.	.	.	32b-\	.	.
.	.	.	32cc\JJ)	.	.
.	8c 8E\	.	(8b-^\	.	.
.	8cJ 8E\	.	8a^\J)	.	]]
=29	=29	=29	=29	=29	=29
*	*	*	*^	*	*
4.AA/	8AA\L	.	(16d#X/LL	8d#\	.	p
.	.	.	16e/	.	.	.
.	8c 8E\	.	16a/	4ryy	.	.
.	.	.	16cc/	.	.	.
.	8cJ 8E\	.	16ee/	.	.	.
.	.	.	16dd#X/JJ)	.	.	.
*	*	*	*v	*v	*	*
=30	=30	=30	=30	=30	=30
4.AA/	8AA\L	.	(32b\LLL	.	.
.	.	.	32cc\	.	.
.	.	.	32b\	.	.
.	.	.	32cc\JJ)	.	.
.	8c 8E\	.	(8b^\	.	.
.	8cJ 8E\	.	8cc\J)	.	.
!!LO:LB:g=original
=31	=31	=31	=31	=31	=31
*	*	*	*^	*	*
4.AA/	8AA\L	.	(16d#X/LL	8d#\	.	.
.	.	.	16e/	.	.	.
.	8c 8E\	.	16a/	4ryy	.	.
.	.	.	16cc/	.	.	.
.	8cJ 8E\	.	16ee/	.	.	.
.	.	.	16dd#X/JJ)	.	.	.
*	*	*	*v	*v	*	*
=32	=32	=32	=32	=32	=32
4.AA/	8AA\L	.	(32b-X\LLL	.	.
.	.	.	32cc\	.	.
.	.	.	32b-\	.	.
.	.	.	32cc\JJ	.	.
.	8c 8E\	.	(8b-^\	.	.
.	8cJ 8E\	.	8a\J))	.	.
=33	=33	=33	=33	=33	=33
4d/	8E\L	1	(>16bnLL 16g#X/	2 4	p
.	.	.	16cc/J	.	.
!	!	!	!LO:TX:b:i:t=cresc.-poco-a-poco:ext=s:problem:text with extention lines	!	!
.	8E\	.	8b 8g#/	.	<
8c/	[8E\J	2	8aJ 8f#X'>/)	.	.
=34	=34	=34	=34	=34	=34
16B/LL	4E\]	3	(>16g#XLL 16e/	1 3	.
16c/J	.	2	16aJ 16f#X/	2 4	.
8d/	.	1	8b 8g#/	3 5	.
8c/J	[8E\	.	8aJ 8f#'>/)	.	.
=35	=35	=35	=35	=35	=35
16B/LL	4E\]	.	(>16g#XLL 16e/	.	.
16c/J	.	.	16aJ 16f#X/	.	.
8d/	.	.	8b 8g#/	.	.
8c/J	8E\	.	8aJ 8f#'>/)	.	[[
*v	*v	*	*	*	*
!!LO:LB:g=original
=36	=36	=36	=36	=36
*	*below	*	*	*
64E/LLL	5	16ryy	.	.
64B/	3	.	.	.
64c/	2	.	.	.
64d/JJJ	1	.	.	.
16ryy	.	64e\LLL	1	.
.	.	64f#X\	2	.
.	.	64g#X\	3	.
.	.	64a\JJJ	4	.
8ryy	.	8b\	5	.
*	*above	*	*	*
!	!	!LO:TX:b:rj:i:t=m.g.	!	!
8qdd#X>\	2	.	.	.
!	!	!LO:TX:a:i:t=m.d.	!	!LO:DY:a:rj
8ryy	.	8eee 8ee/	.	sfz
=37	=37	=37	=37	=37
*^	*	*	*	*
4d/	8E\L	.	(16bLL (16g#X/	.	.
.	.	.	16cc/J	.	.
.	8E\	.	8b 8g#/	.	.
8c/	[8E\J	.	8aJ 8f#X/))	.	.
=38	=38	=38	=38	=38	=38
16B/LL	4E\]	.	(>16g#XLL 16e/	.	.
16c/J	.	.	16aJ 16f#X/	.	.
8d/	.	.	8b 8g#/	.	.
!	!	!	!	!	!LO:DY:a
8c/J	[8E\	.	8aJ 8f#/)	.	sfz
=39	=39	=39	=39	=39	=39
16B/L	4E\]	.	(>16g#XLL 16e/	.	.
16c/	.	.	16aJ 16f#X/	.	.
8d/	.	.	8b 8g#/	.	.
!	!	!	!	!	!LO:DY:a
8c/J	8E\	.	8aJ 8f#/)	.	sfz
*v	*v	*	*	*	*
=40	=40	=40	=40	=40
!LO:TX:t=P:problem:łuk	!	!	!	!
64E/LLL	.	16ryy	.	.
64B/	.	.	.	.
64c/	.	.	.	.
64d/JJJ	.	.	.	.
16ryy	.	64e\LLL	.	.
.	.	64f#X\	.	.
.	.	64g#X\	.	.
.	.	64a\JJJ	.	.
8ryy	.	8b\	.	.
!	!	!LO:TX:b:rj:i:t=m.g.	!	!
8qdd#X>\	.	.	.	.
!	!	!LO:TX:a:i:t=m.d.	!	!LO:DY:rj
8ryy	.	8eee 8ee/	.	sfz
!!LO:LB:g=original
=41	=41	=41	=41	=41
*	*	*^	*	*
4d 4E^\	.	8r	(16b\LL	3	mf
.	.	.	16a\J	2	.
.	.	4ee^/	8g#X\J)	1 5	.
[8d [8E^\	.	.	(16b\LL	.	.
.	.	.	16a\J	.	.
=42	=42	=42	=42	=42	=42
8d] 8E\]	.	4ee^/	8g#X\J)	.	.
4d 4E^\	.	.	(16b\LL	.	.
.	.	.	16a\J	.	.
.	.	8ee^/	8g#\J)	.	.
=43	=43	=43	=43	=43	=43
4c 4E^\	.	8ryy	(<16a\LL	3	>
.	.	.	16g#X\J	2	.
.	.	4dd^/	8f#X\J)	1 5	.
[8c [8E^\	.	.	(16a\LL	.	.
.	.	.	16g#\J	.	.
=44	=44	=44	=44	=44	=44
8c] 8E\]	.	4dd^/	8f#X\J)	.	.
4c 4E^\	.	.	(16a\LL	.	.
.	.	.	16g#X\J	.	.
.	.	8dd^/	8f#\J)	.	.
=45	=45	=45	=45	=45	=45
*ped	*	*	*	*	*
4B 4E^\	.	8rff	(16gn\LL	3	p
.	.	.	16f#X\J	2	.
.	.	4cc#X^/	8e\J)	1 5	.
[8B [8E^\	.	.	(16g\LL	.	.
.	.	.	16f#\J	.	.
=46	=46	=46	=46	=46	=46
8B] 8E\]	.	4cc#X^/	8e\J)	.	.
4B 4E^\	.	.	(16g\LL	.	.
.	.	.	16f#X\J	.	.
.	.	8cc#^/	8e\J)	.	.
*	*	*v	*v	*	*
!!LO:LB:g=original
=47	=47	=47	=47	=47
*ped	*below	*	*	*
!	!	!	!	!LO:DY:rj
8BBL 8EE/	1 3	(>8gL 8c#X/	1 3	mf
.	.	.	.	<
8BBB/	.	8cc#X/	.	.
8BBJ 8EE/	.	8gJ 8c#/	.	.
=48	=48	=48	=48	=48
8BBB/L	.	8cc#X/L	.	.
8BB 8EE/	.	8g 8c#X/	.	.
8BBB/J	.	8cc#/J	.	.
=49	=49	=49	=49	=49
8BBL 8EE/	.	8gL 8c#X/	.	.
8BBB/	.	8cc#X/	.	.
8BBJ 8EE/	.	8gJ 8c#/)	.	.
*Xped	*	*	*	*
=50||	=50||	=50||	=50||	=50||
*k[b-e-a-]	*	*k[b-e-a-]	*	*
!	!	!	!	!LO:DY:t=%s subito
8BB-L 8EE-^/	.	4.g 4.cn^>/	.	p
8BB- 8EE-'/	.	.	.	.
8BB-J 8EE-'/	.	.	.	.
=51	=51	=51	=51	=51
8BB-L 8EE-^/	.	4.g 4.c^>/	.	.
8BB- 8EE-'/	.	.	.	.
8BB-J 8EE-'/	.	.	.	.
=52	=52	=52	=52	=52
8BB-L 8EE-^/	.	4.g: 4.c^>:/	.	.
8BB- 8EE-'/	.	.	.	.
8BB-J 8EE-'/	.	.	.	.
=53	=53	=53	=53	=53
8BB-L 8EE-^/	.	4.g 4.c^>/	.	.
8BB- 8EE-'/	.	.	.	.
8BB-J 8EE-'/	.	.	.	.
!!LO:PB:g=original
=54	=54	=54	=54	=54
*	*	*^	*	*
*ped	*	*	*	*	*
!!LO:TX:a:B:t=Poco più lento. M.M. [quarter-dot]=80.
8BB-L 8EE-/	.	8.g~/L	4c\	.	sfz
8BB- 8EE-/	.	.	.	.	.
.	.	16g'/L	.	3	p
*Xped	*	*	*	*	*
8BB-J 8EE-/	.	16a-'/	8d\	4	.
.	.	16f'/JJ	.	2	.
=55	=55	=55	=55	=55	=55
*ped	*	*	*	*	*
8BB-L 8EE-/	.	8.g~/L	4c\	.	sfz
8BB- 8EE-/	.	.	.	.	.
.	.	16g'/L	.	.	p
*Xped	*	*	*	*	*
8BB-J 8EE-/	.	16a-'/	8d\	.	.
.	.	16f'/JJ	.	.	.
=56	=56	=56	=56	=56	=56
*ped	*	*	*	*	*
8BB-L 8EE-/	.	16g'/LL	4c\	3	.
.	.	16g'/J	.	4	.
8BB- 8EE-/	.	(8f/	.	2	.
*Xped	*	*	*	*	*
8BB-J 8EE-/	.	16a-/L	8d\	3	.
.	.	16cc/JJ)	.	5	.
=57	=57	=57	=57	=57	=57
8BB-L 8EE-/	.	(16b-/LL	8c\	5	.
.	.	16g/J	.	4	.
8BB- 8EE-/	.	8f/	4d\	2	.
8BB-J 8EE-/	.	8B-/J)	.	1	.
!!LO:LB:g=original
=58	=58	=58	=58	=58	=58
8BB-L 8EE-/	.	(8.g/L	4c\	.	sfz
8BB- 8EE-/	.	.	.	.	.
.	.	16g/L	.	.	p
8BB-J 8EE-/	.	16a-/	8d\	.	.
.	.	16f/JJ)	.	.	.
=59	=59	=59	=59	=59	=59
8BB-L 8EE-/	.	(8.g/L	4c\	.	sfz
8BB- 8EE-/	.	.	.	.	.
.	.	16g/L	.	.	p
8BB-J 8EE-/	.	16a-/	8d\	.	.
.	.	16f/JJ)	.	.	.
=60	=60	=60	=60	=60	=60
8BB-L 8EE-/	.	(16g/LL	4c\	.	.
.	.	16g/J	.	.	.
!	!	!	!	!	!LO:HP:a
8BB- 8EE-/	.	8f/	.	.	<
8BB-J 8EE-/	.	16a-/L	8d\	.	.
.	.	16cc/JJ	.	.	[
=61	=61	=61	=61	=61	=61
!	!	!	!	!	!LO:HP:a
8BB-L 8EE-/	.	16b-/LL	8c\	.	>
.	.	16g/J	.	.	.
8BB- 8EE-/	.	8f/	4d-X\	.	]
8BB-J 8EE-/	.	8B-/J)	.	.	.
*	*	*v	*v	*	*
=62	=62	=62	=62	=62
*ped	*	*	*	*
8BB- 8EE-/	.	8.gg 8.cc 8.g\	.	ff
4BB- 4EE-/	.	.	.	.
!	!	!LO:TX:t=P:problem:mixed beam	!	!
.	.	16ggLL 16cc 16g\	.	.
*Xped	*	*	*	*
.	.	16a-< 16d< 16B-</	.	.
.	.	16ffJJ 16b- 16f\	.	.
!!LO:LB:g=original
=63	=63	=63	=63	=63
*ped	*	*	*	*
8BB- 8EE-/	.	8.gg 8.cc 8.g\	.	.
4BB- 4EE-/	.	.	.	.
!	!	!LO:TX:t=P:problem:mixed beam	!	!
.	.	16ggLL 16cc 16g\	.	.
*Xped	*	*	*	*
.	.	16a-< 16d< 16B-</	.	.
.	.	16ffJJ 16b- 16f\	.	.
=64	=64	=64	=64	=64
*ped	*	*	*	*
8BB- 8EE-/	.	16ggLL 16cc 16g\	.	.
.	.	16ggJJ 16cc 16g\	.	.
*Xped	*	*	*	*
4BB- 4EE-/	.	8ff 8dd 8f\	.	.
!	!	!LO:TX:t=P:problem:mixed beam	!	!
.	.	16a-<LL 16d< 16B-</	.	.
.	.	16cccJJ 16dd 16cc\	.	.
=65	=65	=65	=65	=65
*ped	*	*	*	*
8BB- 8EE-'>/	.	(16bb-LL 16ee- 16b-'\	.	.
.	.	16ggJJ 16g\)	.	.
*Xped	*	*	*	*
4BB- 4EE-/	.	8ff 8b- 8f\	.	.
!	!	!LO:TX:t=P:problem:mixed beam	!	!
.	.	16B-<LL 16BB-</	.	.
.	.	16b-JJ 16B-\	.	.
=66	=66	=66	=66	=66
*^	*	*^	*	*
*ped	*	*	*	*	*	*
!!LO:TX:a:B:t=Presto.
4.GG-X/	8GG-\L	.	8.b-^/L	[4.f-X\	.	sfz
.	8B- 8D-X'>\	.	.	.	.	.
.	.	.	16b-'/L	.	.	mf
*Xped	*	*	*	*	*	*
.	8B-J 8D-'>\	.	(16cc/	.	.	.
.	.	.	16a-/JJ)	.	.	.
=67	=67	=67	=67	=67	=67	=67
*ped	*	*	*	*	*	*
4.GG-X/	8GG-\L	.	8.b-^/L	4.f-X\]	.	.
.	8B- 8D-X'>\	.	.	.	.	.
.	.	.	16b-'/L	.	.	.
.	8B-J 8D-'>\	.	(16cc/	.	.	.
.	.	.	16a-/JJ)	.	.	.
!!LO:LB:g=original
=68	=68	=68	=68	=68	=68	=68
4.BB-/	8BB-\L	.	(16dd-X/LL	4.gn\	4	f
.	.	.	16ee-/	.	5	.
.	8d-X 8F'>\	.	16dd-/	.	4	.
.	.	.	16cc/J	.	3	.
.	8d-J 8F'>\	.	8b-/J)	.	2	.
=69	=69	=69	=69	=69	=69	=69
4.BB-/	8BB-\L	.	(16dd-X::/LL	4.g::\	.	.
.	.	.	16ee-/	.	.	.
.	8d-X 8F'>\	.	16dd-/	.	.	.
.	.	.	16cc/J	.	.	.
.	8d-J 8F'>\	.	8b-/J)	.	.	.
=70	=70	=70	=70	=70	=70	=70
4.GG-X/	8GG-\L	.	8.b-^/L	4.f-X\	.	.
.	8B- 8D-X'>\	.	.	.	.	.
.	.	.	16b-'/L	.	.	.
.	8B-J 8D-'>\	.	(16cc/	.	.	.
.	.	.	16a-/JJ)	.	.	.
=71	=71	=71	=71	=71	=71	=71
4.GG-X/	8GG-\L	.	8.b-^/L	4.f-X\	.	.
.	8B- 8D-X'>\	.	.	.	.	.
.	.	.	16b-'/L	.	.	.
.	8B-J 8D-'>\	.	(16cc/	.	.	.
.	.	.	16a-/JJ)	.	.	.
!!LO:LB:g=original
=72	=72	=72	=72	=72	=72	=72
4.BB-/	8BB-\L	.	(16dd-X/LL	4.gn\	.	.
.	.	.	16ee-/	.	.	.
.	8d-X 8F'>\	.	16dd-/	.	.	.
.	.	.	16cc/J	.	.	.
.	8d-J 8F'>\	.	8b-/J)	.	.	.
=73	=73	=73	=73	=73	=73	=73
4.BB-/	8BB-\L	.	(16dd-X::/LL	4.g::\	.	.
.	.	.	16ee-/	.	.	.
.	8d-X 8F'>\	.	16dd-/	.	.	.
.	.	.	16cc/J	.	.	.
.	8d-J 8F'>\	.	8b-/J)	.	.	.
*v	*v	*	*	*	*	*
=74	=74	=74	=74	=74	=74
*ped	*	*	*	*	*
4.f: 4.B-: 4.G: 4.D-X:\	.	16ff^/LL	4.g\	4	sfz
!	!	!LO:TX:b:i:t=con fuoco	!	!	!
.	.	16gg/	.	5	.
.	.	16ff/	.	4	.
.	.	16ee-/J	.	3	.
.	.	8dd-X/J	.	2	.
*Xped	*	*	*	*	*
=75	=75	=75	=75	=75	=75
*^	*	*	*	*	*
*ped	*	*	*	*	*	*
4.BB-/	8BB-\L	.	16dd-X^/LL	4.g\	.	.
.	.	.	16ee-/	.	.	.
.	8d-X 8F\	.	16dd-/	.	.	.
.	.	.	16cc/J	.	.	.
*Xped	*	*	*	*	*	*
.	8d-J 8F\	.	8b-/J	.	.	.
*v	*v	*	*	*	*	*
!!LO:PB:g=original
=76	=76	=76	=76	=76	=76
*ped	*	*	*	*	*
4.f: 4.B-: 4.G: 4.D-X:\	.	16ff^/LL	4.g\	.	.
.	.	16gg/	.	.	.
.	.	16ff/	.	.	.
.	.	16ee-/J	.	.	.
.	.	8dd-X/J	.	.	.
*Xped	*	*	*	*	*
=77	=77	=77	=77	=77	=77
*^	*	*	*	*	*
*ped	*	*	*	*	*	*
4.BB-/	8BB-\L	.	16dd-X^/LL	4.g\	.	.
.	.	.	16ee-/	.	.	.
.	8d-X 8F\	.	16dd-/	.	.	.
.	.	.	16cc/J	.	.	.
*Xped	*	*	*	*	*	*
.	8d-J 8F\	.	8b-/J	.	.	.
*v	*v	*	*	*	*	*
=78	=78	=78	=78	=78	=78
*ped	*	*	*	*	*
4.f: 4.B-: 4.G: 4.D-X:\	.	(16ff/LL	4.g\	.	ff
.	.	16gg/	.	.	.
.	.	16ff/	.	.	.
.	.	16ee-/J	.	.	.
.	.	8dd-X/J)	.	.	.
*Xped	*	*	*	*	*
=79	=79	=79	=79	=79	=79
(16F#X\LL	3	(16fff#X/LL	4.ff#X\	4	fff
16G#X\	2	16ggg#X/	.	5	.
16F#\	3	16fff#/	.	4	.
16En\J	4	16eeen/J	.	3	.
!LO:S:s=1:note:problem=note-level slur	!	!	!	!	!
8dJ 8D\)	5	8dddn/J)	.	2	.
!!LO:LB:g=original
=80	=80	=80	=80	=80	=80
*ped	*	*	*	*	*
4.f: 4.B-: 4.G: 4.D-X:\	.	(16ffn/LL	4.g\	.	.
.	.	16ggnX/	.	.	.
.	.	16ff/	.	.	.
.	.	16ee-/J	.	.	.
.	.	8dd-X/J)	.	.	.
*Xped	*	*	*	*	*
=81	=81	=81	=81	=81	=81
(16F#X\LL	.	(16fff#X/LL	4.ff#X\	.	.
16G#X\	.	16ggg#X/	.	.	.
16F#\	.	16fff#/	.	.	.
16En\J	.	16eeen/J	.	.	.
!LO:S:s=1:note:problem=note-level slur	!	!	!	!	!
8dJ 8D\)	.	8ddd/J)	.	.	.
=82	=82	=82	=82	=82	=82
*^	*	*	*	*	*
*ped	*	*	*	*	*	*
(4.d-X/	4a- 4A-^>\	.	(4.ddd-X/	4aaa- 4aa-^>\	.	ff
.	8a- 8A-^>\)	.	.	8aaa- 8aa-^>\)	.	.
*v	*v	*	*	*	*	*
*	*	*v	*v	*	*
=83	=83	=83	=83	=83
8a-L 8A-^\	.	8aaa-L 8aa-^\	.	.
8a- 8A-^\	.	8aaa- 8aa-^\	.	.
8a-J 8A-^\	.	8aaa-J 8aa-^\	.	.
=84	=84	=84	=84	=84
*	*	*^	*	*
!	!	!	!	!	!LO:DY:rj
8AA-L 8DD-X'/	.	(8.f^/L	[4.c-X\	.	mf <
8AA- 8DD-'/	.	.	.	.	.
.	.	16f/L	.	.	[
.	.	.	.	.	>
8AA-J 8DD-'/	.	16g/	.	.	.
.	.	16e-/JJ)	.	.	]
!!LO:LB:g=original
=85	=85	=85	=85	=85	=85
8AA-L 8DD-X'/	.	(8.f^/L	4.c-\]	.	<
8AA- 8DD-'/	.	.	.	.	.
.	.	16f/L	.	.	.
.	.	.	.	.	[
8AA-J 8DD-'/	.	16g/	.	.	>
.	.	16e-/JJ)	.	.	]
*Xped	*	*	*	*	*
=86	=86	=86	=86	=86	=86
*^	*	*	*	*	*
*ped	*	*	*	*	*	*
(4.d-X/	4a- 4A-^>\	.	(4.ddd-X/	4aaa- 4aa-^>\	.	ff
.	8a- 8A-^>\)	.	.	8aaa- 8aa-^>\)	.	.
*v	*v	*	*	*	*	*
*	*	*v	*v	*	*
=87	=87	=87	=87	=87
8a-L 8A-^\	.	8aaa-L 8aa-^\	.	.
8a- 8A-^\	.	8aaa- 8aa-^\	.	.
8a-J 8A-^\	.	8aaa-J 8aa-^\	.	.
=88	=88	=88	=88	=88
*	*	*^	*	*
!	!	!	!	!	!LO:DY:rj
8AA-L 8DD-X'/	.	(8.f^/L	[4.c-X\	.	mf
.	.	.	.	.	<
8AA- 8DD-'/	.	.	.	.	.
.	.	16f/L	.	.	.
.	.	.	.	.	[
8AA-J 8DD-'/	.	16g/	.	.	>
.	.	16e-/JJ)	.	.	.
.	.	.	.	.	]
=89	=89	=89	=89	=89	=89
8AA-L 8DD-X'/	.	(8.f/L	4.c-\]	.	<
8AA- 8DD-'/	.	.	.	.	.
.	.	16f/L	.	.	.
.	.	.	.	.	[
.	.	.	.	.	>
8AA-J 8DD-'/	.	16g/	.	.	.
.	.	16e-/JJ)	.	.	.
.	.	.	.	.	]
*Xped	*	*	*	*	*
*clefG2	*	*	*	*	*
*	*	*v	*v	*	*
!!LO:LB:g=original
=90	=90	=90	=90	=90
*^	*	*^	*	*
*ped	*	*	*8va	*	*	*
4b- 4B-/	[>4.d-X\	.	[4.ddd-X/	4bbb- 4bb-\	.	ff
[8b- [<8B-/	.	.	.	[>8bbb- [8bb-\	.	.
=91	=91	=91	=91	=91	=91	=91
8b-]L 8B-/]	4.d-\]	.	4.ddd-/]	8bbb-]L 8bb-\]	.	.
8b- 8B-/	.	.	.	8bbb- 8bb-\	.	.
8b-J 8B-/	.	.	.	8bbb-J 8bb-\	.	.
*v	*v	*	*	*	*	*
*	*	*v	*v	*	*
*clefF4	*	*X8va	*	*
=92	=92	=92	=92	=92
*	*	*^	*	*
8AA-L 8DD-X/	.	(8.f/L	[4.c-X\	.	.
8AA- 8DD-/	.	.	.	.	.
.	.	16f/L	.	.	.
8AA-J 8DD-/	.	16g/	.	.	.
.	.	16e-/JJ	.	.	.
=93	=93	=93	=93	=93	=93
8AA-L 8DD-X/	.	8.f/L	4.c-\]	.	.
8AA- 8DD-/	.	.	.	.	.
.	.	16f/L	.	.	.
8AA-J 8DD-/	.	16g/	.	.	.
.	.	16e-/JJ)	.	.	.
*Xped	*	*	*	*	*
*clefG2	*	*	*	*	*
*	*	*v	*v	*	*
=94	=94	=94	=94	=94
*ped	*	*8va	*	*
4bn 4Bn^/	.	4bbbn 4bbn^\	.	fff
.	.	.	.	<
[8b [8B^/	.	[8bbb [8bb^\	.	.
!!LO:LB:g=original
=95	=95	=95	=95	=95
8b] 8B/]	.	8bbb] 8bb\]	.	.
4bn 4Bn^/	.	4bbbn 4bbn^\	.	.
.	.	.	.	[
*Xped	*	*	*	*
*clefF4	*	*X8va	*	*
=96	=96	=96	=96	=96
*^	*	*^	*	*
*ped	*	*	*	*	*	*
!!LO:TX:a:i:t=poco a poco rit.
[4.BBn [4.FF/	8BBBn\L	.	(8.f/L	[4.c#X [4.An\	.	p
.	8BBB\	.	.	.	.	.
.	.	.	16f/L	.	.	.
.	8BBB\J	.	16g/	.	.	.
.	.	.	16e-/JJ)	.	.	.
=97	=97	=97	=97	=97	=97	=97
4.BBnX_ 4.FF/_	8BBBn\L	.	(8.f/L	4.c#_ 4.A\_	.	.
.	8BBB\	.	.	.	.	.
.	.	.	16f/L	.	.	.
.	8BBB\J	.	16g/	.	.	.
.	.	.	16e-/JJ)	.	.	.
=98	=98	=98	=98	=98	=98	=98
4.BBnX] 4.FF/]	8BBBn\L	.	(8.f/L	4.c#] 4.A\]	.	.
.	8BBB\	.	.	.	.	.
.	.	.	16f/L	.	.	.
.	8BBB\J	.	16g/	.	.	.
.	.	.	16e-/JJ)	.	.	.
*Xped	*	*	*	*	*	*
*v	*v	*	*	*	*	*
*	*	*v	*v	*	*
=99	=99	=99	=99	=99
*	*	*cue	*	*
!LO:TX:b:i:t=m.d.	!	!LO:TX:t=P:problem:mixed beam	!	!
!	!	!LO:TUP:a	!	!
8ryy	.	N(>104F</LLL	.	.
.	.	104G</	.	.
.	.	104An</	.	.
.	.	104Bn</	.	.
!	!	!LO:SIC:v:s=104c\	!	!
.	.	104d\	.	.
!	!	!LO:TX:b:i:t=glissando	!	!
.	.	104d\	.	.
.	.	104en\	.	.
.	.	104f\	.	.
.	.	104g\	.	.
.	.	104an\	.	.
.	.	104bn\	.	.
.	.	104cc\	.	.
.	.	104dd\JJJ	.	.
*	*	*Xcue	*	*
!	!	!LO:TX:b:i:t=m.g.	!	!
4dd#X>/N)	.	4ryy	.	.
!!LO:PB:g=original
=100||	=100||	=100||	=100||	=100||
*k[]	*	*k[]	*	*
*ped	*	*	*	*
8BL 8F 8AA'\	.	4.r	.	ppp
8B 8F 8AA'\	.	.	.	.
8BJ 8F 8AA'\	.	.	.	.
=101	=101	=101	=101	=101
8BL 8F 8AA'\	.	4.r	.	.
8B 8F 8AA'\	.	.	.	.
8BJ 8F 8AA'\	.	.	.	.
=102	=102	=102	=102	=102
8BL 8F 8AA'\	.	4.r	.	.
8B 8F 8AA'\	.	.	.	.
8BJ 8F 8AA'\	.	.	.	.
*Xped	*	*	*	*
=103	=103	=103	=103	=103
*^	*	*	*	*
*ped	*	*	*	*	*
4.AA/	8AA\L	.	8e/	.	sfz
.	8c 8E'>\	.	8r	.	p
*Xped	*	*	*	*	*
.	8cJ 8E'>\	.	8r	.	.
*v	*v	*	*	*	*
=104	=104	=104	=104	=104
8BL 8F 8AA\	.	4.r	.	ppp
8B 8F 8AA\	.	.	.	.
8BJ 8F 8AA\	.	.	.	.
=105	=105	=105	=105	=105
8BL 8F 8AA\	.	4.r	.	.
8B 8F 8AA\	.	.	.	.
8BJ 8F 8AA\	.	.	.	.
=106	=106	=106	=106	=106
8BL 8F 8AA\	.	4.r	.	.
8B 8F 8AA\	.	.	.	.
8BJ 8F 8AA\	.	.	.	.
!!LO:LB:g=original
=107	=107	=107	=107	=107
*^	*	*	*	*
4.AA/	8AA\L	.	8e/	.	sfz
.	8c 8E'>\	.	8r	.	.
.	8cJ 8E'>\	.	8r	.	.
*v	*v	*	*	*	*
=108	=108	=108	=108	=108
*	*	*^	*	*
8BL 8F 8AA'\	.	(16f/LL	8r	2	pp
.	.	16g/J	.	3	.
8B 8F 8AA'\	.	8a/	8rc	4	.
8BJ 8F 8AA'\	.	16b/L	[8d#X\	.	.
.	.	16a/JJ)	.	.	.
=109	=109	=109	=109	=109	=109
8BL 8F 8AA'\	.	(16f/LL	8d#\]	.	.
.	.	16g/J	.	.	.
8B 8F 8AA'\	.	8a/	8rc	.	.
8BJ 8F 8AA'\	.	16b/L	[8d#X\	.	.
.	.	16a/JJ)	.	.	.
=110	=110	=110	=110	=110	=110
8BL 8F 8AA'\	.	(16f/LL	8d#\]	.	.
.	.	16g/J	.	.	.
8B 8F 8AA'\	.	8a/	8rc	.	.
8BJ 8F 8AA'\	.	16cc#/L	[8d#X\	.	.
.	.	16b/JJ)	.	.	.
=111	=111	=111	=111	=111	=111
8BL 8F 8AA'\	.	(32a/LLL	8d#\]	.	.
.	.	32b/	.	.	.
.	.	32a/	.	.	.
.	.	32b/JJ	.	.	.
8B 8F 8AA'\	.	8g/	8rc	.	.
8BJ 8F 8AA'\	.	8a/J)	8rc	.	.
!!LO:LB:g=original
=112	=112	=112	=112	=112	=112
!	!	!	!	!	!LO:HP:t=poco cresc.
8BL 8F 8AA'\	.	(16f/LL	8r	.	<
.	.	16g/J	.	.	.
8B 8F 8AA'\	.	8a/	8rc	.	.
8BJ 8F 8AA'\	.	16b/L	[8d#X\	.	.
.	.	16a/JJ)	.	.	.
=113	=113	=113	=113	=113	=113
8BL 8F 8AA'\	.	(16f/LL	8d#\]	.	.
.	.	16g/J	.	.	.
8B 8F 8AA'\	.	8a/	8rc	.	.
8BJ 8F 8AA'\	.	16b/L	[8d#X\	.	.
.	.	16a/JJ)	.	.	.
=114	=114	=114	=114	=114	=114
8BL 8F 8AA\	.	(16f/LL	8d#\]	.	.
.	.	16g/J	.	.	.
8B 8F 8AA\	.	8a/	8rc	.	.
8BJ 8F 8AA\	.	16b/L	8d#X\	.	.
.	.	16a/JJ)	.	.	.
*	*	*v	*v	*	*
=115	=115	=115	=115	=115
!	!	!	!	!LO:DY:a
8AAL 8AAA/	.	8e/	.	sfz
8c 8E/	.	8r	.	.
8cJ 8E/	.	8r	.	.
=116	=116	=116	=116	=116
*	*	*^	*	*
8BL 8F 8AA'\	.	(16f/LL	8r	.	.
.	.	16g/J	.	.	.
8B 8F 8AA'\	.	8a/	8rc	.	.
8BJ 8F 8AA'\	.	16b/L	[8d#X\	.	.
.	.	16a/JJ)	.	.	.
!!LO:LB:g=original
=117	=117	=117	=117	=117	=117
8BL 8F 8AA'\	.	(16f/LL	8d#\]	.	.
.	.	16g/J	.	.	.
8B 8F 8AA'\	.	8a/	8rc	.	.
8BJ 8F 8AA'\	.	16b/L	[8d#X\	.	.
.	.	16a/JJ)	.	.	.
=118	=118	=118	=118	=118	=118
8BL 8F 8AA'\	.	(16f/LL	8d#\]	.	.
.	.	16g/J	.	.	.
8B 8F 8AA'\	.	8a/	8rc	.	.
8BJ 8F 8AA'\	.	16cc#/L	[8d#X\	.	.
.	.	16b/JJ)	.	.	.
=119	=119	=119	=119	=119	=119
8BL 8F 8AA\	.	(32a::/LLL	8d#::\]	.	.
.	.	32b/	.	.	.
.	.	32a/	.	.	.
.	.	32b/JJ	.	.	.
8B 8F 8AA\	.	8g/	8rc	.	.
8BJ 8F 8AA\	.	8a/J)	8rc	.	.
=120	=120	=120	=120	=120	=120
8BL 8F 8AA\	.	(16f/LL	8rc	.	.
.	.	16g/J	.	.	.
8B 8F 8AA\	.	8a/	8rc	.	.
8BJ 8F 8AA\	.	16b/L	[8d#X\	.	.
.	.	16a/JJ)	.	.	.
=121	=121	=121	=121	=121	=121
8BL 8F 8AA\	.	(16f/LL	8d#\]	.	.
.	.	16g/J	.	.	.
8B 8F 8AA\	.	8a/	8rc	.	.
8BJ 8F 8AA\	.	16b/L	[8d#X\	.	.
.	.	16a/JJ)	.	.	.
!!LO:LB:g=original
=122	=122	=122	=122	=122	=122
8BL 8F 8AA\	.	(16f/LL	8d#\]	.	.
.	.	16g/J	.	.	.
8B 8F 8AA\	.	8a/	8rc	.	.
8BJ 8F 8AA\	.	16b/L	8d#X\	.	.
.	.	16a/JJ)	.	.	.
*	*	*v	*v	*	*
=123	=123	=123	=123	=123
!	!	!	!	!LO:DY:a
8AAL 8AAA/	.	8e/	.	sfz
8c 8E/	.	8r	.	.
8cJ 8E/	.	8r	.	.
=124	=124	=124	=124	=124
*^	*	*	*	*
*ped	*	*	*	*	*
4.AA/	8AA\L	.	(16d#X/LL	2	mf <
.	.	.	16e/	1	.
.	8c 8E'>\	.	16a/	2	.
.	.	.	16cc/	3	.
*Xped	*	*	*	*	*
.	8cJ 8E'>\	.	16ee/	5	.
.	.	.	16dd#X/JJ	4	[[
=125	=125	=125	=125	=125	=125
4.AA/	8AA\L	.	32b\LLL	.	>
.	.	.	32cc\	.	.
.	.	.	32b\	.	.
.	.	.	32cc\JJ	.	.
.	8c 8E'>\	.	8b\	.	]
.	8cJ 8E'>\	.	8cc\J)	.	.
=126	=126	=126	=126	=126	=126
4.AA/	8AA\L	.	(>16d#X/LL	.	<
.	.	.	16e/	.	.
.	8c 8E'>\	.	16a/	.	.
.	.	.	16cc/	.	.
.	8cJ 8E'>\	.	16ee/	.	.
.	.	.	16dd#X/JJ	.	[[
!!LO:LB:g=original
=127	=127	=127	=127	=127	=127
4.AA/	8AA\L	.	32b-X/LLL	.	>
.	.	.	32cc/	.	.
.	.	.	32b-/	.	.
.	.	.	32cc/JJ	.	.
.	8c 8E'>\	.	8b-/	.	.
.	8cJ 8E'>\	.	8a/J)	.	]
=128	=128	=128	=128	=128	=128
*	*	*	*^	*	*
4.AA/	8AA\L	.	(16d#X/LL	8d#\	.	mf <
.	.	.	16e/	.	.	.
.	8c 8E\	.	16a/	4ryy	.	.
.	.	.	16cc/	.	.	.
.	8cJ 8E\	.	16ee/	.	.	.
.	.	.	16dd#X/JJ	.	.	[[
*	*	*	*v	*v	*	*
=129	=129	=129	=129	=129	=129
4.AA/	8AA\L	.	32b\LLL	.	>
.	.	.	32cc\	.	.
.	.	.	32b\	.	.
.	.	.	32cc\JJ	.	.
.	8c 8E\	.	8b\	.	]
.	8cJ 8E\	.	8cc\J)	.	.
=130	=130	=130	=130	=130	=130
4.AA/	8AA\L	.	(>16d#X/LL	.	p <
.	.	.	16e/	.	.
.	8c 8E\	.	16a/	.	.
.	.	.	16cc/	.	.
.	8cJ 8E\	.	16ee/	.	.
.	.	.	16dd#X/JJ	.	[[
=131	=131	=131	=131	=131	=131
4.AA/	8AA\L	.	32b-X/LLL	.	>
.	.	.	32cc/	.	.
.	.	.	32b-/	.	.
.	.	.	32cc/JJ	.	.
.	8c 8E\	.	8b-/	.	]
.	8cJ 8E\	.	8a/J)	.	.
*v	*v	*	*	*	*
!!LO:PB:g=original
=132	=132	=132	=132	=132
*ped	*	*	*	*
!!LO:TX:a:B:t=Prestissimo.
8C:: 8EE:: 8AAA::\	.	(16D#X<::/LL	2	p
.	.	16E</	1	.
8rCC	.	16A</	2	.
*	*	*	*below	*
.	.	16c</	3	.
8rCC	.	16e</	5	.
.	.	16d#X</JJ)	4	.
=133	=133	=133	=133	=133
8d#X 8c 8A 8E\	.	16r	.	.
*	*	*	*above	*
.	.	(16e/LL	1	.
8r	.	16a/	2	.
.	.	16cc/	3	.
*Xped	*	*	*	*
8r	.	16ee/	5	.
.	.	16dd#X/JJ)	4	.
=134	=134	=134	=134	=134
*ped	*	*	*	*
8C 8EE 8AAA\	.	16rB<	.	.
.	.	(16E</LL	.	.
8rEE	.	16A</	.	.
.	.	16c</	.	.
8rEE	.	16e</	.	.
.	.	16d#X</JJ)	.	.
=135	=135	=135	=135	=135
8d#X 8c 8A 8E\	.	16r	.	.
.	.	(16e/LL	.	.
8r	.	16a/	.	.
.	.	16cc/	.	.
*Xped	*	*	*	*
8r	.	16ee/	.	.
.	.	16dd#X/JJ)	.	.
=136	=136	=136	=136	=136
*ped	*	*	*	*
8C 8EE 8AAA/	.	16r	.	.
.	.	(16G/LL	1	<
8r	.	16c/	2	.
.	.	16e/	3	.
8r	.	16g/	5	.
.	.	16f#X/JJ)	4	.
!!LO:LB:g=original
=137	=137	=137	=137	=137
8f#X 8e 8c 8G\	.	16r	.	.
.	.	(16g\LL	.	.
8r	.	16cc\	.	.
.	.	16ee\	.	.
*Xped	*	*	*	*
8r	.	16gg\	.	.
.	.	16ff#X\JJ)	.	.
=138	=138	=138	=138	=138
*ped	*	*	*	*
8E 8GG 8CC/	.	16r	.	.
.	.	(16G/LL	.	.
8r	.	16c/	.	.
.	.	16e/	.	.
8r	.	16g/	.	.
.	.	16f#X/JJ)	.	.
=139	=139	=139	=139	=139
8f#X 8e 8c 8G\	.	16r	.	.
.	.	(16g\LL	.	.
8r	.	16cc\	.	.
.	.	16ee\	.	.
*Xped	*	*	*	*
8r	.	16gg\	.	.
.	.	16ff#X\JJ)	.	.
=140	=140	=140	=140	=140
*ped	*	*	*	*
8G#X 8BB 8EE/	.	16r	.	.
.	.	(16B/LL	1	.
8r	.	16e/	2	.
.	.	16g#X/	3	.
8r	.	16b/	5	.
.	.	16a#X/JJ)	4	.
=141	=141	=141	=141	=141
8a#X 8g#X 8e 8B\	.	16r	.	.
.	.	(16b\LL	.	.
8r	.	16ee\	.	.
.	.	16gg#X\	.	.
*Xped	*	*	*	*
8r	.	16bb\	.	.
.	.	16aa#X\JJ)	.	.
!!LO:LB:g=original
=142	=142	=142	=142	=142
*ped	*	*	*	*
8G#X 8BB 8EE/	.	16r	.	.
.	.	(16B/LL	.	.
8r	.	16e/	.	.
.	.	16g#X/	.	.
8r	.	16b/	.	.
.	.	16a#X/JJ)	.	.
=143	=143	=143	=143	=143
8a#X 8g#X 8e 8B\	.	16r	.	.
.	.	(16b\LL	.	.
8r	.	16ee\	.	.
.	.	16gg#X\	.	.
*Xped	*	*	*	*
8r	.	16bb\	.	.
.	.	16aa#X\JJ)	.	.
*clefG2	*	*	*	*
=144	=144	=144	=144	=144
*ped	*	*	*	*
!!LO:TX:a:i:t=poco rit.
8dd-X 8a-X 8f 8d-X/	.	8fff 8ddd-X 8aa-X 8ff\	.	sfz
*Xped	*	*	*	*
8r	.	8r	.	.
8r	.	8r	.	.
*clefF4	*	*	*	*
=145	=145	=145	=145	=145
*ped	*	*	*	*
8dn: 8G#X: 8E: 8BB-X:\	.	8gg#X 8ee 8ddn 8g#X\	.	pp
*Xped	*	*	*	*
8r	.	8r	.	.
8r	.	8r	.	.
=146	=146	=146	=146	=146
*	*	*^	*	*
!!LO:TX:a:i:t=a tempo
8BL 8F 8AA'\	.	(>16f/LL	4ryy	.	pp
.	.	16g/J	.	.	.
8B 8F 8AA'\	.	8a/	.	.	.
8BJ 8F 8AA'\	.	16b/L	[8d#X\	.	.
.	.	16a/JJ)	.	.	.
!!LO:LB:g=original
=147	=147	=147	=147	=147	=147
8BL 8F 8AA'\	.	(16f/LL	8d#\]	.	.
.	.	16g/J	.	.	.
8B 8F 8AA'\	.	8a/	8rc	.	.
8BJ 8F 8AA'\	.	16b^/L	[8d#X\	.	.
.	.	16a/JJ)	.	.	.
=148	=148	=148	=148	=148	=148
8BL 8F 8AA'\	.	(16f/LL	8d#\]	.	.
.	.	16g/J	.	.	.
8B 8F 8AA'\	.	8a/	8rc	.	.
8BJ 8F 8AA'\	.	16b^/L	8d#X\	.	.
.	.	16a/JJ)	.	.	.
*	*	*v	*v	*	*
=149	=149	=149	=149	=149
*^	*	*	*	*
*ped	*	*	*	*	*
4.AA/	8AA\L	.	(16d#X/LL	.	.
.	.	.	16e/	.	.
.	8c 8E'>\	.	16a/	.	.
.	.	.	16cc/J	.	.
*Xped	*	*	*	*	*
.	8cJ 8E'>\	.	8ee/J)	.	.
*v	*v	*	*	*	*
=150	=150	=150	=150	=150
*	*	*^	*	*
8BL 8F 8AA'\	.	(16f/LL	8r	.	.
.	.	16g/J	.	.	.
8B 8F 8AA'\	.	8a/	8rc	.	.
8BJ 8F 8AA'\	.	16b^/L	[8d#X\	.	.
.	.	16a/JJ)	.	.	.
=151	=151	=151	=151	=151	=151
8BL 8F 8AA\	.	(8a/L	8d#\]	.	.
!	!	!	!	!	!LO:HP:a
8B 8F 8AA\	.	16cc#X/L	8d#X\	5	>
.	.	16b/	.	4	.
8BJ 8F 8AA\	.	16a/	8rc	3	.
.	.	16g/JJ)	.	2	]
!!LO:LB:g=original
=152	=152	=152	=152	=152	=152
8BL 8F 8AA\	.	8r	8rc	.	.
!	!	!	!	!	!LO:DY:a
8B 8F 8AA\	.	(16cc#X/LL	8d#X\	.	sfz
.	.	16b/	.	.	.
8BJ 8F 8AA\	.	16a/	8rc	.	.
.	.	16g/JJ)	.	.	.
=153	=153	=153	=153	=153	=153
8BL 8F 8AA\	.	8r	8rc	.	.
!	!	!	!	!	!LO:DY:a
8B 8F 8AA\	.	(16cc#X/LL	8d#X\	.	sfz
.	.	16b/	.	.	.
8BJ 8F 8AA\	.	16a/	8rc	.	.
.	.	16g/JJ)	.	.	.
*	*	*v	*v	*	*
=154	=154	=154	=154	=154
*^	*	*	*	*
*ped	*	*	*	*	*
8AA/L	[4.AA\	.	(>16d#X/LL	.	mf
.	.	.	16e/	.	.
8c 8E/	.	.	16a/	.	.
.	.	.	16cc/	.	.
*Xped	*	*	*	*	*
8cJ 8E/	.	.	16ee/	.	.
.	.	.	16dd#X/JJ	.	.
=155	=155	=155	=155	=155	=155
8cL 8E/	4.AA\_	.	32b-X/LLL	.	sfz
.	.	.	32cc/	.	>
.	.	.	32b-/	.	.
.	.	.	32cc/JJ	.	.
8c 8E/	.	.	8b-/	.	]
8cJ 8E/	.	.	8a/J)	.	.
=156	=156	=156	=156	=156	=156
8cL 8E/	4.AA\_	.	(>32bnX/LLL	.	sfz
.	.	.	32cc/	.	>
.	.	.	32b/	.	.
.	.	.	32cc/JJ	.	.
8c 8E/	.	.	8b/	.	]
8cJ 8E/	.	.	8a/J)	.	.
!!LO:LB:g=original
=157	=157	=157	=157	=157	=157
8cL 8E/	4.AA\]	.	(>32b-X/LLL	.	sfz
.	.	.	32cc/	.	>
.	.	.	32b-/	.	.
.	.	.	32cc/JJ	.	.
8c 8E/	.	.	8b-/	.	]
8cJ 8E/	.	.	8a/J)	.	.
*v	*v	*	*	*	*
=158	=158	=158	=158	=158
8C 8EE\	.	16rB<	.	.
!	!	!LO:TX:a:i:t=ad lib.	!	!
.	.	N(32E</LLL	1	.
.	.	32A</	2	.
16ryy	.	32B</	3	.
.	.	32c</JJJ	4	.
!LO:N:vis=16	!	!	!	!
32d#X\LLL	3	16ryy	.	.
!LO:N:vis=16	!	!	!	!
32f\JJJ	2	.	.	.
8ryy	.	32e/LLL	.	.
.	.	32a/	.	.
.	.	32b/	.	.
.	.	32cc/JJJ	.	.
=159	=159	=159	=159	=159
16dd#X>\LL	.	8ryy	.	.
16ff>\JJ	.	.	.	.
8ryy	.	32ee/LLL	.	.
.	.	32aa/	.	.
.	.	32bb/	.	.
.	.	32ccc/JJJ	.	.
16ddd#X>\LL	.	8ryy	.	.
16fff>\JJ	.	.	.	.
=160	=160	=160	=160	=160
*	*	*8va	*	*
8ryy	.	32eee/LLL	.	.
.	.	32aaa/	.	.
.	.	32bbb/	.	.
.	.	32cccc/JJJ	.	.
*8va	*	*	*	*
8eeee>\N)	.	8ryy	.	.
*X8va	*	*X8va	*	*
8ryy	.	8r	.	.
=161	=161	=161	=161	=161
8d-X 8A-X 8D-X\	.	8ff 8dd-X 8a-X 8f\	.	pp
8r	.	8r	.	.
8r	.	8r	.	.
=162	=162	=162	=162	=162
8AAn 8AAAn/	.	8an 8An/	.	.
8r	.	8r	.	.
8r	.	8r	.	.
==	==	==	==	==
*-	*-	*-	*-	*-
!!!system-decoration: {(g1)}
!!!RDF**kern: i = editorial accidental
!!!RDF**kern: > = above
!!!RDF**kern: < = below
!!!RDF**kern: N = linked
!!!RDF**dynam: > = "dim.", fontstyle= "italic"
!!!ENC: Filip Voros
!!!EED: Katarzyna Serwa
!!!END: 2023-10-16
!!!EEV: 2023-11-05
